X: 10781
M: 2/4
L: 1/16
K: Gm	% and Bb and G major.
P: Tak your auld cloak about ye.
(Bc)BA G2(AG) | ^FGF=E D2GA |\
!ff!B2FF F2E2 | D2FF F2"^>"^F2 |\
g2d2 dedc | B2A2"^D.C."G2 |][K:=B=e]
[K:G]\
"^piu"D2 |\
(3(BcB) (3(ABA) G2D2 | {F}EDEF G2D2 |\
(3(Bdc) (3(AcB) G2D2 | E2A2 A2c2 |\
(3(BcB) (3(ABA) G2D2 | EFGA Bcde |\
edBG D2c2 | B2G2"^D.C."G2 |]


